X:1421
T:Godnattlåten
R:polska
M:3/4
S:Efter [[Personer/Per Myhr]], Glöte
O:Glöte, Härjedalen
Z:Lennart Sohlman
N:(Metronomtal infört enligt föregående version - förmodligen, om något, en aning lågt)
B:EÖ nr 703
Q:1/4=136
L:1/8
K:Dm
d>e f2 f>g|a>b ag g2|a2 f2 fa|ag e4::!
e>f d2- d>f|e>^c d2 fa|a>g ef d2|"^e?"d>^c A4-|!
A>f d2- d>f|e>d ^cd fa|(a>g) (ef) d>f|(3ed^c d4:|]
(:musicend:)

(:music:)
